outputs/icons/enterprise/steps_round.svg

<svg xmlns="http://www.w3.org/2000/svg" width="1200" height="1200" fill="none"><path fill="#000" d="M442.237 850c-6.016 145.645-4.795 250-154.737 250-147.812 0-149.629-104.355-156.25-250zM1067.235 662.5c-6.015 145.645-4.795 250-154.735 250-147.815 0-149.63-104.355-156.25-250zM287.5 287.5C391.016 287.5 475 392.969 475 600c0 62.5-31.396 125-31.396 187.5H131.445C131.445 725 100 662.5 100 600c0-207.031 83.984-312.5 187.5-312.5M912.5 100c103.515 0 187.5 105.469 187.5 312.5 0 62.5-31.395 125-31.395 187.5h-312.16c0-62.5-31.445-125-31.445-187.5C725 205.469 808.985 100 912.5 100"/></svg>

<svg width="1200" height="1200" viewBox="0 0 1200 1200" fill="none" xmlns="http://www.w3.org/2000/svg"><path d="M442.237 850C436.221 995.645 437.442 1100 287.5 1100C139.688 1100 137.871 995.645 131.25 850H442.237Z" fill="black"/><path d="M1067.235 662.5C1061.22 808.145 1062.44 912.5 912.5 912.5C764.685 912.5 762.87 808.145 756.25 662.5H1067.235Z" fill="black"/><path d="M287.5 287.5C391.016 287.5 475 392.969 475 600C475 662.5 443.604 725 443.604 787.5H131.445C131.445 725 100 662.5 100 600C100 392.969 183.984 287.5 287.5 287.5Z" fill="black"/><path d="M912.5 100C1016.015 100 1100 205.469 1100 412.5C1100 475 1068.605 537.5 1068.605 600H756.445C756.445 537.5 725 475 725 412.5C725 205.469 808.985 100 912.5 100Z" fill="black"/></svg>
